public/svg/button-call/pen.svg

<svg width="60" height="52" viewBox="0 0 60 52" fill="none" xmlns="http://www.w3.org/2000/svg">
<path d="M48.4264 31.361L19.6005 2.53503L15.1267 7.00877L37.9732 29.8553M48.4264 31.361L51.1081 42.9901M48.4264 31.361L45.4865 34.3009L42.4827 37.3047L39.4789 40.3085M51.1081 42.9901L39.4789 40.3085M51.1081 42.9901L52.9275 44.8098M39.4789 40.3085L10.653 11.4825" stroke="#E9EFE8" stroke-width="3" stroke-linecap="square"/>
<path d="M28.9946 38.9331L2.35547 12.2939L11.1927 3.45668" stroke="#E9EFE8" stroke-width="3"/>
</svg>

<svg width="60" height="52" fill="none" xmlns="http://www.w3.org/2000/svg"><path d="M48.426 31.361L19.6 2.535l-4.473 4.474 22.846 22.846m10.453 1.506l2.682 11.63m-2.682-11.63l-2.94 2.94-3.003 3.004-3.004 3.004m11.63 2.681l-11.63-2.681m11.63 2.681l1.819 1.82m-13.45-4.502L10.654 11.484" stroke="#E9EFE8" stroke-width="3" stroke-linecap="square"/><path d="M28.995 38.933l-26.64-26.64 8.838-8.836" stroke="#E9EFE8" stroke-width="3"/></svg>
